images/TGBP.svg

<svg height="250" viewBox="0 0 250 250" width="250" xmlns="http://www.w3.org/2000/svg"><path d="m0 23.4375c0-12.945312 10.492188-23.4375 23.4375-23.4375h203.125c12.945312 0 23.4375 10.492188 23.4375 23.4375v203.125c0 12.945312-10.492188 23.4375-23.4375 23.4375h-203.125c-12.945312 0-23.4375-10.492188-23.4375-23.4375zm0 0" fill="#f43c3c"/><g fill="#fff"><path d="m150.988281 189.0625c6.960938 0 9.796875 1.351562 9.796875 5.476562v.128907c0 4.320312-3.609375 5.609375-9.605468 5.609375h-12.246094v-11.214844zm0 0"/><path d="m150.40625 207.6875c7.992188 0 11.023438 1.417969 11.023438 5.867188v.0625c0 4.1875-2.578126 5.992187-11.410157 5.992187h-11.085937v-11.921875zm0 0"/><path d="m211.007812 197.375c0-5.480469-3.546874-7.796875-11.023437-7.796875h-10.570313v15.59375h10.828126c7.414062 0 10.765624-2.445313 10.765624-7.796875zm0 0"/><path d="m23.4375 166.015625c-8.628906 0-15.625 6.996094-15.625 15.625v44.921875c0 8.628906 6.996094 15.625 15.625 15.625h203.125c8.628906 0 15.625-6.996094 15.625-15.625v-44.921875c0-8.628906-6.996094-15.625-15.625-15.625zm95.277344 61.523437h-7.414063l-.460937-6.347656c-1.953125 3.90625-6.820313 7.441406-16.679688 7.441406-12.761718 0-20.625-6.894531-20.625-22.296874v-2.773438c0-14.953125 9.214844-22.945312 23.136719-22.945312 12.761719 0 20.625 5.800781 21.785156 16.953124h-10.246093c-.648438-4.964843-3.804688-8.507812-11.472657-8.507812-8.894531 0-13.535156 4.640625-13.535156 14.757812v2.320313c-.066406 9.734375 4.316406 14.246094 13.148437 14.246094 8.375 0 12.308594-3.867188 12.824219-9.28125h-13.984375v-7.929688h23.523438zm-49.773438-45.953124v8.183593h-14.824218v37.769531h-9.539063v-37.769531h-14.179687v-8.183593zm82.238282 45.953124c13.214843 0 19.851562-4.125 19.851562-13.210937v-.066406c0-5.929688-2.898438-8.957031-8.507812-10.3125 5.027343-1.546875 7.476562-4.640625 7.476562-10.246094v-.195313c0-8.1875-6.121094-11.925781-19.464844-11.925781h-20.753906v45.957031zm69.300781-30.101562c0 9.925781-6.574219 15.792969-19.914063 15.726562h-11.152344v14.375h-9.28125v-45.953124h19.789063c14.371094 0 20.558594 5.796874 20.558594 15.851562zm0 0" fill-rule="evenodd"/><path d="m74.21875 28.320312h34.179688c0 18.875-15.304688 34.179688-34.179688 34.179688zm0 0"/><path d="m142.578125 28.320312c-18.875 0-34.179687 15.304688-34.179687 34.179688v75.195312h34.179687v-75.195312h34.179687v-34.179688zm0 0"/></g></svg>

<svg xmlns="http://www.w3.org/2000/svg" xmlns:xlink="http://www.w3.org/1999/xlink" width="250px" height="250px" viewBox="0 0 250 250" version="1.1">
<g id="surface1">
<path style=" stroke:none;fill-rule:nonzero;fill:rgb(95.686275%,23.529412%,23.529412%);fill-opacity:1;" d="M 0 23.4375 C 0 10.492188 10.492188 0 23.4375 0 L 226.5625 0 C 239.507812 0 250 10.492188 250 23.4375 L 250 226.5625 C 250 239.507812 239.507812 250 226.5625 250 L 23.4375 250 C 10.492188 250 0 239.507812 0 226.5625 Z M 0 23.4375 "/>
<path style=" stroke:none;fill-rule:nonzero;fill:rgb(100%,100%,100%);fill-opacity:1;" d="M 150.988281 189.0625 C 157.949219 189.0625 160.785156 190.414062 160.785156 194.539062 L 160.785156 194.667969 C 160.785156 198.988281 157.175781 200.277344 151.179688 200.277344 L 138.933594 200.277344 L 138.933594 189.0625 Z M 150.988281 189.0625 "/>
<path style=" stroke:none;fill-rule:nonzero;fill:rgb(100%,100%,100%);fill-opacity:1;" d="M 150.40625 207.6875 C 158.398438 207.6875 161.429688 209.105469 161.429688 213.554688 L 161.429688 213.617188 C 161.429688 217.804688 158.851562 219.609375 150.019531 219.609375 L 138.933594 219.609375 L 138.933594 207.6875 Z M 150.40625 207.6875 "/>
<path style=" stroke:none;fill-rule:nonzero;fill:rgb(100%,100%,100%);fill-opacity:1;" d="M 211.007812 197.375 C 211.007812 191.894531 207.460938 189.578125 199.984375 189.578125 L 189.414062 189.578125 L 189.414062 205.171875 L 200.242188 205.171875 C 207.65625 205.171875 211.007812 202.726562 211.007812 197.375 Z M 211.007812 197.375 "/>
<path style=" stroke:none;fill-rule:evenodd;fill:rgb(100%,100%,100%);fill-opacity:1;" d="M 23.4375 166.015625 C 14.808594 166.015625 7.8125 173.011719 7.8125 181.640625 L 7.8125 226.5625 C 7.8125 235.191406 14.808594 242.1875 23.4375 242.1875 L 226.5625 242.1875 C 235.191406 242.1875 242.1875 235.191406 242.1875 226.5625 L 242.1875 181.640625 C 242.1875 173.011719 235.191406 166.015625 226.5625 166.015625 Z M 118.714844 227.539062 L 111.300781 227.539062 L 110.839844 221.191406 C 108.886719 225.097656 104.019531 228.632812 94.160156 228.632812 C 81.398438 228.632812 73.535156 221.738281 73.535156 206.335938 L 73.535156 203.5625 C 73.535156 188.609375 82.75 180.617188 96.671875 180.617188 C 109.433594 180.617188 117.296875 186.417969 118.457031 197.570312 L 108.210938 197.570312 C 107.5625 192.605469 104.40625 189.0625 96.738281 189.0625 C 87.84375 189.0625 83.203125 193.703125 83.203125 203.820312 L 83.203125 206.140625 C 83.136719 215.875 87.519531 220.386719 96.351562 220.386719 C 104.726562 220.386719 108.660156 216.519531 109.175781 211.105469 L 95.191406 211.105469 L 95.191406 203.175781 L 118.714844 203.175781 Z M 68.941406 181.585938 L 68.941406 189.769531 L 54.117188 189.769531 L 54.117188 227.539062 L 44.578125 227.539062 L 44.578125 189.769531 L 30.398438 189.769531 L 30.398438 181.585938 Z M 151.179688 227.539062 C 164.394531 227.539062 171.03125 223.414062 171.03125 214.328125 L 171.03125 214.261719 C 171.03125 208.332031 168.132812 205.304688 162.523438 203.949219 C 167.550781 202.402344 170 199.308594 170 193.703125 L 170 193.507812 C 170 185.320312 163.878906 181.582031 150.535156 181.582031 L 129.78125 181.582031 L 129.78125 227.539062 Z M 220.480469 197.4375 C 220.480469 207.363281 213.90625 213.230469 200.566406 213.164062 L 189.414062 213.164062 L 189.414062 227.539062 L 180.132812 227.539062 L 180.132812 181.585938 L 199.921875 181.585938 C 214.292969 181.585938 220.480469 187.382812 220.480469 197.4375 Z M 220.480469 197.4375 "/>
<path style=" stroke:none;fill-rule:nonzero;fill:rgb(100%,100%,100%);fill-opacity:1;" d="M 74.21875 28.320312 L 108.398438 28.320312 C 108.398438 47.195312 93.09375 62.5 74.21875 62.5 Z M 74.21875 28.320312 "/>
<path style=" stroke:none;fill-rule:nonzero;fill:rgb(100%,100%,100%);fill-opacity:1;" d="M 142.578125 28.320312 C 123.703125 28.320312 108.398438 43.625 108.398438 62.5 L 108.398438 137.695312 L 142.578125 137.695312 L 142.578125 62.5 L 176.757812 62.5 L 176.757812 28.320312 Z M 142.578125 28.320312 "/>
</g>
</svg>
